!!!OTL: 83. Zay gezunt
!!!Genre:	Zay gezunt
!!!Mode:	Minor
!!!Listening/dance:	listening
!!!One_Mode:	no
**kern
*thru
*I"P1
*clefG2
*>A
*k[b-e-]
*g:
*M2/4
!!!Begin-Modulation
*g:
!LO:TX:a:i:t=G-minor
=7
8gL
16aL
16b-JJ
(8qdd/
8ccL)
16b-L
16aJJ
=8
2g
*>A
=9:|!|:
!!!Begin-Modulation
*g:
!LO:TX:a:i:t=G-minor
=7
8gL
16aL
16b-JJ
(8qdd/
8ccL)
16b-L
16aJJ
=8
2g
*>B
=9:|!|:
!!!Begin-Modulation
*g:
!LO:TX:a:i:t=G-minor
=15
16aLL
16b-
16cc
16b-JJ
(8qee-/
16.ddLL)
32cck
16b-
16aJJ
=16
!LO:TX:b:Bi:t=Fine
2g
=17:|!|:
*>B
!!!Begin-Modulation
*g:
!LO:TX:a:i:t=G-minor
=15
16aLL
16b-
16cc
16b-JJ
(8qee-/
16.ddLL)
32cck
16b-
16aJJ
=16
!LO:TX:b:Bi:t=Fine
2g
=17:|!|:
*>C
16ggLL
16gg
16gg
16ggJJ
16ggLL
16ff
16aa-X
16ggJJ
=18
16ffLL
16ff
16ff
16ffJJ
(8qgg/
16.ffLL)
32ee-k
16dd
16ccJJ
!!!Begin-Modulation
*g:
!LO:TX:a:i:t=G-minor
=21
16ggLL
16gg
16gg
16ggJJ
16ggLL
16ff
16aa-X
16ggJJ
=22
16ffLL
16ff
16ff
16ffJJ
16.ffLL
32ee-k
16dd
16ccJJ
=23
8gL
16aL
16b-JJ
16ccLL
(8qdd/
16cc')
!LO:TX:b:Bi:t=Dal Segno al Fine
16b-'
16a'JJ
=24
2g
=:|!
*>C
16ggLL
16gg
16gg
16ggJJ
16ggLL
16ff
16aa-X
16ggJJ
=18
16ffLL
16ff
16ff
16ffJJ
(8qgg/
16.ffLL)
32ee-k
16dd
16ccJJ
!!!Begin-Modulation
*g:
!LO:TX:a:i:t=G-minor
=21
16ggLL
16gg
16gg
16ggJJ
16ggLL
16ff
16aa-X
16ggJJ
=22
16ffLL
16ff
16ff
16ffJJ
16.ffLL
32ee-k
16dd
16ccJJ
=23
8gL
16aL
16b-JJ
16ccLL
(8qdd/
16cc')
!LO:TX:b:Bi:t=Dal Segno al Fine
16b-'
16a'JJ
=24
2g
=:|!
*-
